src/assets/images/downloads.svg

<svg width="215" height="113" viewBox="0 0 215 113" fill="none" xmlns="http://www.w3.org/2000/svg">
<g filter="url(#filter0_d_27_397)">
<rect x="29" y="29" width="155" height="53" rx="26.5" fill="white"/>
</g>
<circle cx="55.5" cy="55.5" r="17.5" fill="#EDF2F6"/>
<path d="M55 53.75V60.5M55 60.5L52 57.5M55 60.5L58 57.5M49.75 63.5C48.6794 63.5012 47.6435 63.1206 46.8283 62.4267C46.0131 61.7328 45.472 60.7709 45.3021 59.7139C45.1323 58.6569 45.3448 57.574 45.9016 56.6596C46.4584 55.7452 47.323 55.0593 48.34 54.725C48.0787 53.3862 48.3488 51.9982 49.093 50.855C49.8372 49.7118 50.9972 48.9032 52.3272 48.6004C53.6573 48.2975 55.053 48.5242 56.2188 49.2325C57.3846 49.9408 58.2289 51.075 58.573 52.395C59.105 52.222 59.6748 52.2012 60.218 52.3349C60.7612 52.4686 61.2562 52.7516 61.6471 53.1518C62.038 53.5521 62.3092 54.0536 62.43 54.5999C62.5509 55.1461 62.5166 55.7152 62.331 56.243C63.1497 56.5557 63.833 57.1451 64.2626 57.9089C64.6921 58.6728 64.8407 59.5629 64.6826 60.4249C64.5245 61.2868 64.0697 62.0663 63.3971 62.628C62.7244 63.1897 61.8763 63.4982 61 63.5H49.75Z" stroke="#FF5656" stroke-width="2" stroke-linecap="round" stroke-linejoin="round"/>
<path d="M95.0176 51.0859C95.0176 51.666 94.9004 52.1699 94.666 52.5977C94.4316 53.0254 94.1094 53.377 93.6992 53.6523C93.2949 53.9219 92.8262 54.1152 92.293 54.2324V54.2939C93.3184 54.4229 94.0918 54.7451 94.6133 55.2607C95.1406 55.7764 95.4043 56.459 95.4043 57.3086C95.4043 58.0527 95.2256 58.7178 94.8682 59.3037C94.5107 59.8838 93.9629 60.3408 93.2246 60.6748C92.4863 61.0088 91.5371 61.1758 90.377 61.1758C89.6797 61.1758 89.0322 61.1201 88.4346 61.0088C87.8428 60.8975 87.2803 60.7188 86.7471 60.4727V58.6357C87.292 58.9053 87.8721 59.1133 88.4873 59.2598C89.1025 59.4062 89.6855 59.4795 90.2363 59.4795C91.3086 59.4795 92.0732 59.2803 92.5303 58.8818C92.9873 58.4775 93.2158 57.9209 93.2158 57.2119C93.2158 56.7549 93.0957 56.3799 92.8555 56.0869C92.6211 55.7939 92.2549 55.5742 91.7568 55.4277C91.2646 55.2812 90.6289 55.208 89.8496 55.208H88.7158V53.5469H89.8584C90.6025 53.5469 91.2002 53.459 91.6514 53.2832C92.1025 53.1016 92.4277 52.8525 92.627 52.5361C92.832 52.2197 92.9346 51.8506 92.9346 51.4287C92.9346 50.8779 92.7559 50.4502 92.3984 50.1455C92.041 49.835 91.5107 49.6797 90.8076 49.6797C90.374 49.6797 89.9785 49.7295 89.6211 49.8291C89.2695 49.9287 88.9443 50.0547 88.6455 50.207C88.3467 50.3594 88.0625 50.5234 87.793 50.6992L86.7998 49.2666C87.2861 48.9033 87.8662 48.5957 88.54 48.3438C89.2139 48.0918 89.999 47.9658 90.8955 47.9658C92.2139 47.9658 93.2305 48.25 93.9453 48.8184C94.6602 49.3809 95.0176 50.1367 95.0176 51.0859ZM106.509 58.1787H104.769V61H102.73V58.1787H96.8852V56.6143L102.756 48.1152H104.769V56.4648H106.509V58.1787ZM102.73 56.4648V53.2744C102.73 53.0107 102.733 52.7441 102.739 52.4746C102.75 52.1992 102.762 51.9355 102.774 51.6836C102.786 51.4316 102.797 51.2002 102.809 50.9893C102.821 50.7725 102.83 50.5938 102.835 50.4531H102.765C102.654 50.6875 102.531 50.9277 102.396 51.1738C102.261 51.4141 102.118 51.6484 101.965 51.877L98.8012 56.4648H102.73ZM109.344 61L114.389 49.9609H107.718V48.1504H116.612V49.5654L111.567 61H109.344ZM118.779 59.9102C118.779 59.4297 118.902 59.0928 119.148 58.8994C119.4 58.7002 119.704 58.6006 120.062 58.6006C120.419 58.6006 120.724 58.7002 120.976 58.8994C121.234 59.0928 121.363 59.4297 121.363 59.9102C121.363 60.3789 121.234 60.7188 120.976 60.9297C120.724 61.1348 120.419 61.2373 120.062 61.2373C119.704 61.2373 119.4 61.1348 119.148 60.9297C118.902 60.7188 118.779 60.3789 118.779 59.9102ZM132.283 61H123.582V59.4443L126.913 56.0693C127.557 55.4131 128.088 54.8477 128.504 54.373C128.92 53.8926 129.227 53.4385 129.426 53.0107C129.632 52.583 129.734 52.1172 129.734 51.6133C129.734 50.9922 129.555 50.5234 129.198 50.207C128.841 49.8848 128.369 49.7236 127.783 49.7236C127.226 49.7236 126.711 49.835 126.236 50.0576C125.767 50.2744 125.281 50.585 124.777 50.9893L123.643 49.627C124.001 49.3223 124.382 49.0439 124.786 48.792C125.196 48.54 125.653 48.3408 126.157 48.1943C126.661 48.042 127.235 47.9658 127.88 47.9658C128.694 47.9658 129.397 48.1123 129.989 48.4053C130.581 48.6924 131.035 49.0938 131.351 49.6094C131.674 50.125 131.835 50.7256 131.835 51.4111C131.835 52.1025 131.697 52.7412 131.422 53.3271C131.146 53.9131 130.754 54.4932 130.244 55.0674C129.734 55.6357 129.128 56.2539 128.425 56.9219L126.201 59.0928V59.1895H132.283V61ZM138.448 47.9746C139.193 47.9746 139.863 48.0918 140.461 48.3262C141.059 48.5547 141.533 48.8975 141.885 49.3545C142.236 49.8115 142.412 50.377 142.412 51.0508C142.412 51.5723 142.304 52.0264 142.087 52.4131C141.876 52.7998 141.589 53.1396 141.226 53.4326C140.862 53.7197 140.455 53.9746 140.004 54.1973C140.508 54.4434 140.971 54.7275 141.393 55.0498C141.82 55.3662 142.163 55.7383 142.421 56.166C142.685 56.5938 142.817 57.0947 142.817 57.6689C142.817 58.3896 142.632 59.0137 142.263 59.541C141.9 60.0625 141.393 60.4668 140.742 60.7539C140.092 61.0352 139.333 61.1758 138.466 61.1758C137.534 61.1758 136.74 61.0381 136.084 60.7627C135.428 60.4873 134.93 60.0947 134.59 59.585C134.25 59.0693 134.08 58.4541 134.08 57.7393C134.08 57.1475 134.197 56.6348 134.432 56.2012C134.666 55.7676 134.98 55.3926 135.372 55.0762C135.771 54.7598 136.207 54.4932 136.682 54.2764C136.277 54.0361 135.908 53.7666 135.574 53.4678C135.24 53.1631 134.974 52.8145 134.775 52.4219C134.581 52.0234 134.484 51.5635 134.484 51.042C134.484 50.374 134.663 49.8145 135.021 49.3633C135.378 48.9062 135.856 48.5605 136.453 48.3262C137.057 48.0918 137.722 47.9746 138.448 47.9746ZM136.049 57.6602C136.049 58.2227 136.248 58.6855 136.647 59.0488C137.045 59.4121 137.64 59.5938 138.431 59.5938C139.216 59.5938 139.814 59.415 140.224 59.0576C140.634 58.7002 140.839 58.2285 140.839 57.6426C140.839 57.2676 140.734 56.9365 140.523 56.6494C140.318 56.3623 140.039 56.1074 139.688 55.8848C139.342 55.6562 138.958 55.4453 138.536 55.252L138.255 55.1377C137.798 55.3311 137.405 55.5508 137.077 55.7969C136.749 56.0371 136.494 56.3096 136.313 56.6143C136.137 56.9189 136.049 57.2676 136.049 57.6602ZM138.431 49.5654C137.862 49.5654 137.394 49.7061 137.025 49.9873C136.661 50.2627 136.48 50.6611 136.48 51.1826C136.48 51.5518 136.568 51.8682 136.743 52.1318C136.925 52.3955 137.168 52.624 137.473 52.8174C137.777 53.0049 138.114 53.1807 138.484 53.3447C138.841 53.1865 139.163 53.0137 139.45 52.8262C139.743 52.6328 139.975 52.4043 140.145 52.1406C140.32 51.8711 140.408 51.5488 140.408 51.1738C140.408 50.6582 140.224 50.2627 139.855 49.9873C139.491 49.7061 139.017 49.5654 138.431 49.5654ZM147.391 47.9658C148.335 47.9658 149.049 48.3174 149.536 49.0205C150.022 49.7178 150.265 50.7051 150.265 51.9824C150.265 53.2539 150.031 54.2471 149.562 54.9619C149.099 55.6768 148.376 56.0342 147.391 56.0342C146.471 56.0342 145.771 55.6768 145.291 54.9619C144.81 54.2471 144.57 53.2539 144.57 51.9824C144.57 50.7051 144.795 49.7178 145.247 49.0205C145.704 48.3174 146.419 47.9658 147.391 47.9658ZM147.4 49.4072C147.019 49.4072 146.738 49.6211 146.556 50.0488C146.38 50.4766 146.293 51.124 146.293 51.9912C146.293 52.8525 146.38 53.5029 146.556 53.9424C146.738 54.376 147.019 54.5928 147.4 54.5928C147.787 54.5928 148.074 54.376 148.261 53.9424C148.455 53.5088 148.551 52.8584 148.551 51.9912C148.551 51.1299 148.458 50.4854 148.27 50.0576C148.083 49.624 147.793 49.4072 147.4 49.4072ZM156.022 48.1504L148.894 61H147.198L154.326 48.1504H156.022ZM155.785 53.1074C156.728 53.1074 157.443 53.459 157.929 54.1621C158.421 54.8594 158.668 55.8467 158.668 57.124C158.668 58.3896 158.433 59.3799 157.964 60.0947C157.502 60.8096 156.775 61.167 155.785 61.167C154.865 61.167 154.165 60.8096 153.684 60.0947C153.204 59.3799 152.963 58.3896 152.963 57.124C152.963 55.8467 153.189 54.8594 153.64 54.1621C154.097 53.459 154.812 53.1074 155.785 53.1074ZM155.794 54.5488C155.413 54.5488 155.131 54.7627 154.95 55.1904C154.774 55.6182 154.686 56.2656 154.686 57.1328C154.686 57.9941 154.774 58.6445 154.95 59.084C155.131 59.5176 155.413 59.7344 155.794 59.7344C156.186 59.7344 156.476 59.5205 156.664 59.0928C156.851 58.6592 156.945 58.0059 156.945 57.1328C156.945 56.2715 156.851 55.627 156.664 55.1992C156.476 54.7656 156.186 54.5488 155.794 54.5488Z" fill="#494953"/>
<defs>
<filter id="filter0_d_27_397" x="0" y="0" width="215" height="113" filterUnits="userSpaceOnUse" color-interpolation-filters="sRGB">
<feFlood flood-opacity="0" result="BackgroundImageFix"/>
<feColorMatrix in="SourceAlpha" type="matrix" values="0 0 0 0 0 0 0 0 0 0 0 0 0 0 0 0 0 0 127 0" result="hardAlpha"/>
<feOffset dx="1" dy="1"/>
<feGaussianBlur stdDeviation="15"/>
<feComposite in2="hardAlpha" operator="out"/>
<feColorMatrix type="matrix" values="0 0 0 0 0 0 0 0 0 0 0 0 0 0 0 0 0 0 0.15 0"/>
<feBlend mode="normal" in2="BackgroundImageFix" result="effect1_dropShadow_27_397"/>
<feBlend mode="normal" in="SourceGraphic" in2="effect1_dropShadow_27_397" result="shape"/>
</filter>
</defs>
</svg>

<svg xmlns="http://www.w3.org/2000/svg" width="215" height="113" fill="none"><g filter="url(#a)"><rect width="155" height="53" x="29" y="29" fill="#fff" rx="26.5"/></g><circle cx="55.5" cy="55.5" r="17.5" fill="#EDF2F6"/><path stroke="#FF5656" stroke-linecap="round" stroke-linejoin="round" stroke-width="2" d="M55 53.75v6.75m0 0-3-3m3 3 3-3m-8.25 6a4.5 4.5 0 0 1-1.41-8.775 5.25 5.25 0 0 1 10.233-2.33 3 3 0 0 1 3.758 3.848A3.752 3.752 0 0 1 61 63.5z"/><path fill="#494953" d="M95.018 51.086q0 .87-.352 1.512-.352.641-.967 1.054a4.1 4.1 0 0 1-1.406.58v.062q1.538.193 2.32.967.792.773.791 2.048 0 1.116-.536 1.995-.536.87-1.643 1.37-1.108.502-2.848.502-1.046 0-1.942-.167a7.2 7.2 0 0 1-1.688-.536v-1.837q.818.404 1.74.624.924.22 1.75.22 1.608 0 2.293-.598.686-.606.686-1.67 0-.685-.36-1.125-.352-.44-1.1-.66-.737-.219-1.906-.219h-1.134v-1.661h1.142q1.117 0 1.793-.264.678-.272.976-.747.308-.474.308-1.107 0-.827-.537-1.284-.535-.465-1.59-.465-.651 0-1.187.15a5.4 5.4 0 0 0-.975.377 9 9 0 0 0-.853.492l-.993-1.432a7 7 0 0 1 1.74-.923q1.011-.378 2.355-.378 1.979 0 3.05.852 1.073.845 1.073 2.268m11.491 7.093h-1.74V61h-2.039v-2.821h-5.845v-1.565l5.871-8.499h2.013v8.35h1.74zm-3.779-1.714v-3.19q0-.395.009-.8.017-.414.035-.791.017-.378.035-.695.018-.324.026-.536h-.07a10.57 10.57 0 0 1-.8 1.424l-3.164 4.588zM109.344 61l5.045-11.04h-6.671v-1.81h8.894v1.415L111.567 61zm9.435-1.09q0-.72.369-1.01.377-.3.914-.3.536 0 .914.3.387.29.387 1.01 0 .703-.387 1.02a1.4 1.4 0 0 1-.914.307 1.4 1.4 0 0 1-.914-.307q-.369-.316-.369-1.02M132.283 61h-8.701v-1.556l3.331-3.375a42 42 0 0 0 1.591-1.696q.624-.72.922-1.362.308-.642.308-1.398 0-.931-.536-1.406-.536-.483-1.415-.483-.835 0-1.547.334a7.2 7.2 0 0 0-1.459.931l-1.134-1.362a9.6 9.6 0 0 1 1.143-.835q.615-.378 1.371-.598.756-.228 1.723-.228 1.221 0 2.109.44.888.43 1.362 1.203.484.774.484 1.802 0 1.037-.413 1.916a7.4 7.4 0 0 1-1.178 1.74 33 33 0 0 1-1.819 1.855l-2.224 2.17v.098h6.082zm6.165-13.025q1.117 0 2.013.351.897.343 1.424 1.029t.527 1.696q0 .782-.325 1.362a3.4 3.4 0 0 1-.861 1.02 7 7 0 0 1-1.222.764q.756.369 1.389.853.64.474 1.028 1.116.396.642.396 1.503 0 1.08-.554 1.872-.544.783-1.521 1.213-.975.422-2.276.422-1.398 0-2.382-.413t-1.494-1.178q-.51-.773-.51-1.846 0-.887.352-1.538.352-.65.94-1.125a6.3 6.3 0 0 1 1.31-.8 7 7 0 0 1-1.108-.808 3.6 3.6 0 0 1-.799-1.046q-.291-.598-.291-1.38 0-1.001.537-1.679.536-.686 1.432-1.037a5.5 5.5 0 0 1 1.995-.351m-2.399 9.685q0 .844.598 1.389.597.545 1.784.545 1.178 0 1.793-.536.615-.537.615-1.415 0-.562-.316-.994a2.95 2.95 0 0 0-.835-.764 8.5 8.5 0 0 0-1.152-.633l-.281-.114a5.6 5.6 0 0 0-1.178.659 2.8 2.8 0 0 0-.764.817 2.05 2.05 0 0 0-.264 1.046m2.382-8.095q-.853 0-1.406.422-.546.413-.545 1.196 0 .553.263.949.273.396.73.685a8.4 8.4 0 0 0 1.011.528q.535-.237.966-.519.44-.29.695-.685.263-.405.263-.967 0-.773-.553-1.187-.546-.421-1.424-.422m8.96-1.6q1.415 0 2.145 1.055.729 1.047.729 2.962 0 1.908-.703 2.98-.694 1.072-2.171 1.072-1.38 0-2.1-1.072t-.721-2.98q0-1.915.677-2.962.686-1.054 2.144-1.054m.009 1.442q-.571 0-.844.642-.263.642-.263 1.942 0 1.292.263 1.951.273.65.844.65.58 0 .861-.65.29-.65.29-1.95 0-1.293-.281-1.934-.28-.65-.87-.65m8.622-1.257L148.894 61h-1.696l7.128-12.85zm-.237 4.957q1.415 0 2.144 1.055.738 1.046.739 2.962 0 1.899-.704 2.97-.693 1.074-2.179 1.073-1.38 0-2.101-1.072-.72-1.072-.721-2.971 0-1.916.677-2.962.685-1.055 2.145-1.055m.009 1.442q-.572 0-.844.641-.264.642-.264 1.943 0 1.291.264 1.951.272.65.844.65.588 0 .87-.641.28-.65.281-1.96 0-1.292-.281-1.934-.282-.65-.87-.65"/><defs><filter id="a" width="215" height="113" x="0" y="0" color-interpolation-filters="sRGB" filterUnits="userSpaceOnUse"><feFlood flood-opacity="0" result="BackgroundImageFix"/><feColorMatrix in="SourceAlpha" result="hardAlpha" values="0 0 0 0 0 0 0 0 0 0 0 0 0 0 0 0 0 0 127 0"/><feOffset dx="1" dy="1"/><feGaussianBlur stdDeviation="15"/><feComposite in2="hardAlpha" operator="out"/><feColorMatrix values="0 0 0 0 0 0 0 0 0 0 0 0 0 0 0 0 0 0 0.15 0"/><feBlend in2="BackgroundImageFix" result="effect1_dropShadow_27_397"/><feBlend in="SourceGraphic" in2="effect1_dropShadow_27_397" result="shape"/></filter></defs></svg>
